X:1
T:6 Lieder, Op.1
T:Untreu
T:1. Untreu
T:Peter Cornelius
T:Peter Cornelius
T:6 Lieder, Op.1
T:OpenScore (CC0)
T:OpenScore (CC0)
C:Peter Cornelius
Z:Peter Cornelius
Z:OpenScore (CC0)
%%score 1 { 2 | ( 3 4 ) }
L:1/8
Q:1/4=68
M:3/4
K:Ab
V:1 treble nm="Voice"
V:2 treble nm="Piano"
V:3 bass 
V:4 bass 
V:1
"^Etwas langsam"!mp! A/ A3/2 A/ | A2- A z/ A/ G3/2 B/ | A2 z3/2 A/ A3/2 A/ | A2- A z/ A/ G3/2 B/ | %4
w: Mein Lied ist|klein, * braucht  we- nig|Platz: ich nann- te|mein * viel- lie- ben|
 A2 z3/2"^più mosso"[Q:1/4=69]"^cresc.""_cresc." B/ c3/2 c/ | %5
w: Schatz. Ich  sing' es|
[Q:1/4=70] c2- c[Q:1/4=71] z/ c/ B3/2 d/ |[Q:1/4=72] c2[Q:1/4=73] z3/2 c/ c3/2 c/ | %7
w: scheu * und  lei- se|nur: er  schwur mir|
[Q:1/4=74] c2- c3/2[Q:1/4=75] c/ B3/2 d/ |[Q:1/4=76] c2- c z/ c/ c3/2 c/ | %9
w: Treu * und brach den|Schwur. * Auf im- mer|
!f!"^getragen""^sostenuto (slow)"[Q:1/4=72] f3[Q:1/4=70] f f[Q:1/4=68] f | =e3 e e e | %11
w: floh'n mich Glück und|Fried': da habt ihr|
 _e3/2 e/!mf! f3 e |!>(! d4!>)! d2 |!p!"^rit."[Q:1/4=67] c4[Q:1/4=66] (AG) |[Q:1/4=64] F6- | %15
w: schon das End' vom|Lied, das|End' vom *|Lied.|
[Q:1/4=62] F4[Q:1/4=60] z2 | z6 |] %17
w: ||
V:2
 z/ z2 | z3/2!>(! [FAc]/!p! (([F-Ac]2!>)!!p! .[FBd])) z | %2
!f! z3/2!>(! [FAc]/!p! (([FA-c-]2!>)!!p! .[EAce])) z | %3
!f! z3/2!>(! [FAc]/!p! (([F-Ac]2!>)!!p! [FBd])) z | z3/2!f! [Ac]/!p! ([A-c]2!p! [Af]) z | %5
 z3/2!f!"_cresc." [ca]/!mp! (([ca]2 [dg])) z | z3/2!f! [ca]/!mf! ([c-a]2!mp! [cb]) z | %7
 z3/2!f! [Acfa]/ (((([Acfa]2!mp! [GBdg])))) z | z3/2!f! [Acfa]/ ((.[A-cfa-]2!mp! .[Ae_ga]2)) | %9
 z3/2!f! .[ee']/ ((!>![ee']2 [dd'])) z | z3/2 !>![Aa]/ ((!>![Aa]2 [Gg])) z | %11
 z3/2 [cc']/ [dd']3 [cc'] |!>(! z3/2 ([cc']/ [cc']2 [Bb]2!>)! | %13
!p! !arpeggio![Acfa]2) z2 !arpeggio!.[G,B,=E] z | z3/2 C/!mp! (C2!p! D) z | %15
 z3/2 C/!mp! (C2!pp! [DF]2) | !fermata!C4 z2 |] %17
V:3
 z/ z2 | z3/2 [F,A,C]/ (([F,-A,C]2 [F,B,D])) z | z3/2 [F,A,C]/ ([F,A,-C-]2 .[E,A,C]) z | %3
 z3/2 [F,A,C]/ ((([F,A,C]2 [F,B,D]))) z | z3/2 [F,A,C]/ ([F,-A,-C]2 [F,A,F]) z | %5
 z3/2 [A,E]/ ([A,-E]2 [A,_F]) z | z3/2 [A,E]/ (([A,E]2 [G,=E])) z | %7
 z3/2 [F,A,CF]/ ((([F,A,CF]2 [F,B,D=E]))) z | z3/2 [F,A,CF]/ (([F,A,-C-F]2 [E,A,CE]2)) | %9
!f!!ped! D,F,B,DB,F,!ped-up! |!ped! C,G,B,=E_DB,!ped-up! |!ped! =A,,F,CECF,!ped-up! | %12
!ped! B,,F,B,DB,F,!ped-up! | %13
"^rit."!ped! !arpeggio![C,F,A,C]2 z2!ped-up!!ped! !arpeggio!.[C,,C,] z!ped-up! | %14
 x3/2!<(! [F,A,]/!<)!!>(! ([F,-A,]2 [F,B,])!>)! x | x3/2!<(! [F,A,]/!<)!!>(! [F,A,]2!>)! [F,B,]2 | %16
 [F,A,]4 x2 |] %17
V:4
 x5/2 | x6 | x6 | x6 | x6 | x6 | x6 | x6 | x6 | [D,,D,]6 | [C,,C,]4 x2 | [=A,,,=A,,]4 x2 | %12
 [B,,,B,,]4 x2 | x6 | z3/2 [F,,A,,C,]/ (([F,,-A,,C,]2 [F,,B,,D,])) z | %15
 z3/2 [F,,A,,C,]/ [F,,-A,,C,]2 [F,,B,,D,]2 | !fermata![F,,A,,C,]4 z2 |] %17

